!!! OTL: Berkowitz612
!!! Chapter: 1
!!! Section: V
!!! Page: 156
!!! Mode: 
!!! Encoder: AR
**kern
*staff1
=1-
!!pagebreak:original
*clefF4
*k[]
*C:
*met(c|)
*M2/2
4C/
4A\
4A\
4A\
=2
2.A\
4c#\
=3
4A\
4Cn/
4AA-/
4c#\
=4
4An\
4Cn/
4AA-/
4BB/
=5
2.D\
4r
=6
4C/
4A\
4A\
4A\
=7
2.A\
4G-\
=8
!!linebreak:original
4A-\
4B-\
4d-\
4B-\
=9
2.Dn\
4BBn/
=10
2.D\
4BB-/
=11
4BBn/
4G#\
4G#\
4G#\
=12
2G#\
4BB/
4G#\
=13
2.c\
4B\
=14
4G#\
4BB/
4BB/
4G#\
=15
!!linebreak:original
2Gn\
2BB-/
=16
4C/
4A\
4A\
4A\
=17
2A-\
4r
4C/
=18
4An\
4A\
4A-\
4C/
=19
!!linebreak:original
4An\
4A\
4F#\
4AAn/
=20
2.F#\
4r
=21
2F#\
4AA/
4GG#/
=22
4F#\
4A#\
4A#\
4A#\
==
*-
